usr/share/icons/biglinux-icons-material/22/actions/text_rotation.svg

<svg xmlns="http://www.w3.org/2000/svg" viewBox="0 0 22 22">
  <defs id="defs3051">
    <style type="text/css" id="current-color-scheme">
      .ColorScheme-Text {
        color:#363636;
      }
      .ColorScheme-Highlight {
        color:#3daee9;
      }
      </style>
  </defs>
 <path 
     style="fill:currentColor;fill-opacity:1;stroke:none" 
	d="M 14.666016 6.8945312 L 13.333984 10.666016 L 12 14.4375 L 12.943359 14.771484 L 13.396484 13.488281 A 4 4 0 0 0 15.771484 15.771484 A 4 4 0 0 0 20.875 13.333984 A 4 4 0 0 0 18.4375 8.2285156 A 4 4 0 0 0 15.15625 8.5117188 L 15.609375 7.2285156 L 14.666016 6.8945312 z M 5 7.4472656 A 4 4 0 0 0 1 11.447266 A 4 4 0 0 0 5 15.447266 A 4 4 0 0 0 8 14.085938 L 8 15.447266 L 9 15.447266 L 9 11.447266 L 9 7.4472656 L 8 7.4472656 L 8 8.8085938 A 4 4 0 0 0 5 7.4472656 z M 5 8.4472656 A 3 3 0 0 1 8 11.447266 A 3 3 0 0 1 5 14.447266 A 3 3 0 0 1 2 11.447266 A 3 3 0 0 1 5 8.4472656 z M 17.011719 9.0019531 A 3 3 0 0 1 18.105469 9.171875 A 3 3 0 0 1 19.933594 13 A 3 3 0 0 1 16.105469 14.828125 A 3 3 0 0 1 14.275391 11 A 3 3 0 0 1 17.011719 9.0019531 z "
       class="ColorScheme-Text"
     />
 <path 
     style="fill:currentColor;fill-opacity:1;stroke:none" 
	d="M 10 3 L 10 19 L 11 19 L 11 16.580078 L 20.359375 18.685547 L 20.591797 17.658203 L 11 15.5 L 11 3 L 10 3 z "
       class="ColorScheme-Highlight"
     />
</svg>

<svg xmlns="http://www.w3.org/2000/svg" viewBox="0 0 22 22"><path d="m14.666 6.895-1.332 3.771L12 14.437l.943.334.453-1.283a4 4 0 0 0 2.375 2.283 4 4 0 0 0 5.104-2.437 4 4 0 0 0-2.438-5.105 4 4 0 0 0-3.28.283l.452-1.283-.943-.334zM5 7.447a4 4 0 0 0-4 4 4 4 0 0 0 4 4 4 4 0 0 0 3-1.361v1.361h1v-8H8V8.81a4 4 0 0 0-3-1.362zm0 1a3 3 0 0 1 3 3 3 3 0 0 1-3 3 3 3 0 0 1-3-3 3 3 0 0 1 3-3zm12.012.555a3 3 0 0 1 1.093.17A3 3 0 0 1 19.934 13a3 3 0 0 1-3.829 1.828A3 3 0 0 1 14.275 11a3 3 0 0 1 2.737-1.998z" style="fill:currentColor;fill-opacity:1;stroke:none;color:#dedede"/><path d="M10 3v16h1v-2.42l9.36 2.106.232-1.028L11 15.5V3h-1z" style="fill:currentColor;fill-opacity:1;stroke:none;color:#3daee9"/></svg>
